X: 1467
T: Nevâ Seyir
C: Rauf Yektâ
O: Turkey
F: http://compmusic.upf.edu/node/140
N: neva--seyir--semai--1--rauf_yekta
N: makam= neva
N: form= seyir
N: usul= semai = 3/4
M: 3/4
L: 1/16
K: C _2/4B ^3/4f  
Q: 1/4=120
%%MIDI tuningsystem comma53
d8 d4  | A8 A4  | B8 c4  | d8 z4  | d8 g4  | f8 d4  | \
w:   |   |   |   |   |   | 
e8 d4  | d4 c4 B4  | d8 d4  | A8 A4  | 
w:   |   |   |   | 
B8 c4  | d8 z4  | d8 g4  | f8 d4  | e8 d4  | d8 z4  | \
w:   |   |   |   |   |   | 
d8 g4  | f4 e8  | f8 g4  | a8 z4  | b4 a4 g4  | 
w:   |   |   |   |   | 
f4 e4 f4  | g4 f4 e4  | d8 z4  | c4 d8  | e4 f4 g4  | \
w:   |   |   |   |   | 
a4 g4 =f4  | e4 d8  | z4 c4 d4  | 
w:   |   |   | 
e4 d4 c4  | c8 B4  | A8 z4  | |


